X:1
T:[ID 4-30rb]
T:[ID 4-30rb]
T:Bezeichnung standardisiert: Tantz Notat ohne Bezeichnung [= Tantz]
T:Urheber unbekannt Datum in der hier transkribierten schriftlichen Quelle: 1767
C:Urheber unbekannt
C:Datum in der hier transkribierten schriftlichen Quelle: 1767
L:1/8
M:3/8
K:D
V:1 treble 
V:1
 (3d/e/f/ | e2 dc | dc/d/Fc/d/ | e2 dc | d3 :: z | Fcde | f2 d/e/f/d/ | e2 c/d/e/c/ | dc/d/Fd | %10
 GF/G/ED/E/ | F3 :| %12

